Newaita-dark/actions/22/object-flip-horizontal.svg

<?xml version="1.0" encoding="UTF-8"?>
<svg xmlns="http://www.w3.org/2000/svg" xmlns:xlink="http://www.w3.org/1999/xlink" width="22pt" height="22pt" viewBox="0 0 22 22" version="1.1">
<g id="surface1">
<path style=" stroke:none;fill-rule:nonzero;fill:rgb(47.058824%,56.470591%,61.176473%);fill-opacity:1;" d="M 4.546875 19.726562 L 4.546875 18.820312 C 4.546875 18.566406 4.75 18.363281 5.003906 18.363281 L 5.914062 18.363281 C 6.164062 18.363281 6.367188 18.566406 6.367188 18.820312 L 6.367188 19.726562 C 6.367188 19.980469 6.164062 20.183594 5.914062 20.183594 L 5.003906 20.183594 C 4.75 20.183594 4.546875 19.980469 4.546875 19.726562 Z M 4.546875 19.726562 "/>
<path style=" stroke:none;fill-rule:nonzero;fill:rgb(47.058824%,56.470591%,61.176473%);fill-opacity:1;" d="M 4.546875 3.355469 L 4.546875 2.445312 C 4.546875 2.195312 4.75 1.992188 5.003906 1.992188 L 5.914062 1.992188 C 6.164062 1.992188 6.367188 2.195312 6.367188 2.445312 L 6.367188 3.355469 C 6.367188 3.605469 6.164062 3.808594 5.914062 3.808594 L 5.003906 3.808594 C 4.75 3.808594 4.546875 3.605469 4.546875 3.355469 Z M 4.546875 3.355469 "/>
<path style=" stroke:none;fill-rule:nonzero;fill:rgb(47.058824%,56.470591%,61.176473%);fill-opacity:1;" d="M 15.464844 3.355469 L 15.464844 2.445312 C 15.464844 2.195312 15.667969 1.992188 15.917969 1.992188 L 16.828125 1.992188 C 17.078125 1.992188 17.28125 2.195312 17.28125 2.445312 L 17.28125 3.355469 C 17.28125 3.605469 17.078125 3.808594 16.828125 3.808594 L 15.917969 3.808594 C 15.667969 3.808594 15.464844 3.605469 15.464844 3.355469 Z M 15.464844 3.355469 "/>
<path style=" stroke:none;fill-rule:nonzero;fill:rgb(47.058824%,56.470591%,61.176473%);fill-opacity:1;" d="M 15.464844 19.726562 L 15.464844 18.820312 C 15.464844 18.566406 15.667969 18.363281 15.917969 18.363281 L 16.828125 18.363281 C 17.078125 18.363281 17.28125 18.566406 17.28125 18.820312 L 17.28125 19.726562 C 17.28125 19.980469 17.078125 20.183594 16.828125 20.183594 L 15.917969 20.183594 C 15.667969 20.183594 15.464844 19.980469 15.464844 19.726562 Z M 15.464844 19.726562 "/>
<path style=" stroke:none;fill-rule:nonzero;fill:rgb(47.058824%,56.470591%,61.176473%);fill-opacity:1;" d="M 10.003906 14.269531 L 10.003906 13.359375 C 10.003906 13.109375 10.210938 12.90625 10.460938 12.90625 L 11.371094 12.90625 C 11.621094 12.90625 11.824219 13.109375 11.824219 13.359375 L 11.824219 14.269531 C 11.824219 14.523438 11.621094 14.726562 11.371094 14.726562 L 10.460938 14.726562 C 10.210938 14.726562 10.003906 14.523438 10.003906 14.269531 Z M 10.003906 14.269531 "/>
<path style=" stroke:none;fill-rule:nonzero;fill:rgb(47.058824%,56.470591%,61.176473%);fill-opacity:1;" d="M 10.003906 8.8125 L 10.003906 7.902344 C 10.003906 7.652344 10.210938 7.449219 10.460938 7.449219 L 11.371094 7.449219 C 11.621094 7.449219 11.824219 7.652344 11.824219 7.902344 L 11.824219 8.8125 C 11.824219 9.0625 11.621094 9.269531 11.371094 9.269531 L 10.460938 9.269531 C 10.210938 9.269531 10.003906 9.0625 10.003906 8.8125 Z M 10.003906 8.8125 "/>
<path style=" stroke:none;fill-rule:nonzero;fill:rgb(74.117649%,74.117649%,74.117649%);fill-opacity:1;" d="M 1.820312 15.179688 C 1.820312 15.9375 2.425781 16.542969 3.183594 16.542969 L 7.730469 16.542969 C 8.488281 16.542969 9.097656 15.9375 9.097656 15.179688 L 9.097656 6.992188 C 9.097656 6.238281 8.488281 5.628906 7.730469 5.628906 L 3.183594 5.628906 C 2.425781 5.628906 1.820312 6.238281 1.820312 6.992188 Z M 3.183594 14.269531 L 3.183594 7.902344 C 3.183594 7.398438 3.589844 6.992188 4.09375 6.992188 L 6.820312 6.992188 C 7.324219 6.992188 7.730469 7.398438 7.730469 7.902344 L 7.730469 14.269531 C 7.730469 14.773438 7.324219 15.179688 6.820312 15.179688 L 4.09375 15.179688 C 3.589844 15.179688 3.183594 14.773438 3.183594 14.269531 Z M 3.183594 14.269531 "/>
<path style=" stroke:none;fill-rule:nonzero;fill:rgb(74.117649%,74.117649%,74.117649%);fill-opacity:1;" d="M 12.734375 15.179688 L 12.734375 6.992188 C 12.734375 6.242188 13.34375 5.628906 14.097656 5.628906 L 18.648438 5.628906 C 19.398438 5.628906 20.011719 6.242188 20.011719 6.992188 L 20.011719 15.179688 C 20.011719 15.933594 19.398438 16.542969 18.648438 16.542969 L 14.097656 16.542969 C 13.34375 16.542969 12.734375 15.933594 12.734375 15.179688 Z M 12.734375 15.179688 "/>
</g>
</svg>

<svg xmlns="http://www.w3.org/2000/svg" width="22pt" height="22pt" viewBox="0 0 22 22"><path d="M4.547 19.727v-.907c0-.254.203-.457.457-.457h.91c.25 0 .453.203.453.457v.907a.454.454 0 0 1-.453.457h-.91a.455.455 0 0 1-.457-.457zm0 0M4.547 3.355v-.91c0-.25.203-.453.457-.453h.91c.25 0 .453.203.453.453v.91c0 .25-.203.454-.453.454h-.91a.454.454 0 0 1-.457-.454zm0 0M15.465 3.355v-.91c0-.25.203-.453.453-.453h.91c.25 0 .453.203.453.453v.91c0 .25-.203.454-.453.454h-.91a.453.453 0 0 1-.453-.454zm0 0M15.465 19.727v-.907c0-.254.203-.457.453-.457h.91c.25 0 .453.203.453.457v.907a.454.454 0 0 1-.453.457h-.91a.454.454 0 0 1-.453-.457zm0 0M10.004 14.27v-.91c0-.25.207-.454.457-.454h.91c.25 0 .453.203.453.453v.91a.454.454 0 0 1-.453.458h-.91a.458.458 0 0 1-.457-.457zm0 0M10.004 8.813v-.91c0-.25.207-.454.457-.454h.91c.25 0 .453.203.453.453v.91c0 .25-.203.458-.453.458h-.91a.46.46 0 0 1-.457-.457zm0 0" fill="#78909c"/><path d="M1.82 15.18c0 .758.606 1.363 1.364 1.363H7.73a1.36 1.36 0 0 0 1.368-1.363V6.992c0-.754-.61-1.363-1.368-1.363H3.184A1.36 1.36 0 0 0 1.82 6.992zm1.364-.91V7.902c0-.504.406-.91.91-.91H6.82c.504 0 .91.406.91.91v6.368c0 .503-.406.91-.91.91H4.094a.909.909 0 0 1-.91-.91zm0 0M12.734 15.18V6.992c0-.75.61-1.363 1.364-1.363h4.55c.75 0 1.364.613 1.364 1.363v8.188c0 .754-.614 1.363-1.364 1.363h-4.55c-.754 0-1.364-.61-1.364-1.363zm0 0" fill="#bdbdbd"/></svg>
